!!!COM: Josephine Lang
!!!CNT: Deutsch
!!!TXO: Deutsch
!!!OTL: "Fru2hling ist gekommen"
!!!LYR: Reinhold
!!!OPS: Op. 27
!!!ONM: No. 4
!!!ENC: Alyona Dzerbina, phrasing by LVH
!!!YOR: Josephine Lang: Selected Songs
!!!YOR: Da Capo Press, 1982
!!!ODT: 1841/
!!NB: Vocal melody only encoded.
**kern
*staff1
*clefG2
*k[f#c#g#d#]
*M2/4
*MM[Nicht zu schnell und zierlich]
2r
=2
2r
=3
2r
=4
2r
=5
2r
=6
2r
=7
2r
=8
2r
=9
2r
=10
2r
=11
2r
=12
{8.b
16b
8g#
8e
=13
4B
8f#
8r
=14
8.b
16b
8g#
8e
=15
2B}
=16
{8.B
16B
d#q
8c#
8B
=17
4b
4B
=18
8.B
16B
d#q
8c#
8B
=19
2b}
=20
{8.b
16b
8cc#
8ee
=21
(4b
8g#
8e)
=22
8f#
8f#
aq
8.g#
16f#
=23
2ff#}
=24
{8f#
8g#
8a#
8b
=25
4cc#
4dd#
=26
8.ee
16ee
8dd#
8cc#
=27
2ff#}
=28
{8gg#
8ee
8b
8g#
=29
4f#
4e
=30
8.b
16g#
8e
8B
=31
(4cn
4B)}
=32
{4c#
4dn
=33
4c#
[4e
=34
4e]
4e
=35
4.e
8e
=36
4e
8r
8f#
=37
[2g#
=38
2g#]}
=39
2r
=40
2r
=41
2r
=42
2r
=43
2r
=44
2r
=45
2r
=46
2r
=47
2r
=48
2r
=49
2r
=50
{8.b
16b
8g#
8e
=51
4B
8f#
8r
=52
8.b
16b
8g#
8e
=53
2B}
=54
{8.B
16B
d#q
8c#
8B
=55
8b
8r
8B
8r
=56
8.B
16B
d#q
8c#
8B
=57
2b}
=58
{8.b
16b
8cc#
8ee
=59
(4b
8g#)
8e
=60
8f#
8f#
a#q
8g#
8f#
=61
4ff#}
4r
=62
{8f#
8g#
8a#
8b
=63
4cc#
4dd#
=64
8.ee
16ee
8.dd#
16dd#
=65
2ff#}
=66
{8gg#
8ee
8b
8g#
=67
4f#
4e
=68
8.b
16g#
8e
8B
=69
(4cn
8B)}
8r
=70
{4c#
4dn
=71
4c#
4B
=72
4c#
[4e
=73
4e]
4e
=74
4.e
8e
=75
(4e
8.g#)
16f#
=76
2e}
=77
2r
=78
2r
=79
2r
=80
2r
=81
2r
=82
2r
=83
2r
=84
2r
=85
2r
=86
2r
=87
2r
==
*-
